img/pricing/icon-1.svg

<svg width="72" height="88" viewBox="0 0 72 88" fill="none" xmlns="http://www.w3.org/2000/svg">
<path d="M40.0008 59.2998L35.8008 63.4998C38.2008 66.1998 42.3008 66.2998 44.9008 63.7998C45.7008 62.8998 45.2008 61.4998 44.0008 61.2998C42.5008 61.0998 41.0008 60.3998 40.0008 59.2998Z" fill="url(#paint0_linear_116_420)"/>
<path d="M37.3992 61.7998L47.9992 72.3998C48.8151 73.2253 49.2726 74.3392 49.2726 75.4998C49.2726 76.6605 48.8151 77.7743 47.9992 78.5998C47.1737 79.4157 46.0599 79.8732 44.8992 79.8732C43.7386 79.8732 42.6247 79.4157 41.7992 78.5998L31.1992 68.0998L37.3992 61.7998Z" fill="url(#paint1_linear_116_420)"/>
<path opacity="0.07" d="M31.1992 68.0998L31.7992 68.6998C33.3992 70.2998 35.9992 70.2998 37.6992 68.6998L38.5992 67.7998L45.5992 74.7998C46.8992 76.0998 47.1992 77.9998 46.5992 79.5998C47.0992 79.3998 47.5992 79.0998 47.9992 78.5998C48.8151 77.7743 49.2726 76.6605 49.2726 75.4998C49.2726 74.3392 48.8151 73.2253 47.9992 72.3998L37.3992 61.7998L31.1992 68.0998Z" fill="black"/>
<path d="M45.3992 45.1002C53.4992 45.1002 60.0992 38.5002 60.0992 30.4002C60.0992 22.3002 53.4992 15.7002 45.3992 15.7002C37.2992 15.7002 30.6992 22.3002 30.6992 30.4002C30.6992 38.5002 37.2992 45.1002 45.3992 45.1002Z" fill="url(#paint2_linear_116_420)"/>
<path opacity="0.05" d="M34.5 20.6L55.3 41.4L55.9 40.8C58 38.7 59.3 36.1 59.9 33.4L42.4 16C39.7 16.6 37.1 17.9 35 20C34.8 20.2 34.7 20.4 34.5 20.6Z" fill="black"/>
<path d="M20.2004 29.6001L9.6004 40.2001C7.88907 41.905 6.53118 43.9309 5.60465 46.1618C4.67812 48.3926 4.20117 50.7845 4.20117 53.2001C4.20117 55.6157 4.67812 58.0076 5.60465 60.2384C6.53118 62.4693 7.88907 64.4952 9.6004 66.2001C11.3053 67.9114 13.3312 69.2693 15.5621 70.1958C17.7929 71.1224 20.1848 71.5993 22.6004 71.5993C25.016 71.5993 27.4079 71.1224 29.6387 70.1958C31.8696 69.2693 33.8955 67.9114 35.6004 66.2001L46.2004 55.6001C48.2122 53.6418 50.6474 52.1723 53.3177 51.3054C55.988 50.4384 58.8219 50.1971 61.6004 50.6001L64.2004 48.0001L27.8004 11.6001L25.2004 14.2001C25.6034 16.9786 25.3621 19.8125 24.4951 22.4828C23.6282 25.1531 22.1587 27.5883 20.2004 29.6001Z" fill="url(#paint3_linear_116_420)"/>
<path opacity="0.07" d="M27.8 11.6001L64.2 48.0001L61.6 50.6001C58.4 50.1001 55.1 50.5001 52.1 51.7001L24 23.7001C25.2 20.7001 25.6 17.4001 25.1 14.2001L27.8 11.6001Z" fill="black"/>
<path d="M15.0004 66.9998L12.1004 69.8998C11.2749 70.7157 10.161 71.1732 9.00038 71.1732C7.83973 71.1732 6.72588 70.7157 5.90038 69.8998C5.08451 69.0743 4.62695 67.9605 4.62695 66.7998C4.62695 65.6392 5.08451 64.5253 5.90038 63.6998L8.80038 60.7998L15.0004 66.9998Z" fill="url(#paint4_linear_116_420)"/>
<path d="M36.2004 65.7002L10.2004 39.7002L9.6004 40.3002C7.88907 42.005 6.53118 44.031 5.60465 46.2619C4.67812 48.4927 4.20117 50.8846 4.20117 53.3002C4.20117 55.7158 4.67812 58.1077 5.60465 60.3385C6.53118 62.5694 7.88907 64.5953 9.6004 66.3002C11.3053 68.0115 13.3312 69.3694 15.5621 70.2959C17.7929 71.2225 20.1848 71.6994 22.6004 71.6994C25.016 71.6994 27.4079 71.2225 29.6387 70.2959C31.8696 69.3694 33.8955 68.0115 35.6004 66.3002L36.2004 65.7002Z" fill="url(#paint5_linear_116_420)"/>
<path d="M60.3004 50.8998L24.9004 15.4998C24.0845 14.6743 23.627 13.5604 23.627 12.3998C23.627 11.2391 24.0845 10.1253 24.9004 9.29979C25.7259 8.48392 26.8397 8.02637 28.0004 8.02637C29.161 8.02637 30.2749 8.48392 31.1004 9.29979L66.5004 44.6998C67.3163 45.5253 67.7738 46.6391 67.7738 47.7998C67.7738 48.9604 67.3163 50.0743 66.5004 50.8998C64.8004 52.6998 62.0004 52.6998 60.3004 50.8998Z" fill="url(#paint6_linear_116_420)"/>
<path d="M55.5992 15C54.7992 15 54.1992 14.4 54.1992 13.6V9.9C54.1992 9.1 54.7992 8.5 55.5992 8.5C56.3992 8.5 56.9992 9.1 56.9992 9.9V13.6C56.9992 14.4 56.2992 15 55.5992 15Z" fill="url(#paint7_linear_116_420)"/>
<path d="M65.9008 21.6999H62.2008C61.4008 21.6999 60.8008 21.0999 60.8008 20.2999C60.8008 19.4999 61.4008 18.8999 62.2008 18.8999H65.9008C66.7008 18.8999 67.3008 19.4999 67.3008 20.2999C67.3008 20.9999 66.7008 21.6999 65.9008 21.6999Z" fill="url(#paint8_linear_116_420)"/>
<path d="M59.2996 16.5002C58.6996 15.9002 58.6996 15.1002 59.2996 14.5002L61.8996 11.9002C62.4996 11.3002 63.2996 11.3002 63.8996 11.9002C64.4996 12.5002 64.4996 13.3002 63.8996 13.9002L61.2996 16.5002C60.6996 17.1002 59.7996 17.1002 59.2996 16.5002Z" fill="url(#paint9_linear_116_420)"/>
<defs>
<linearGradient id="paint0_linear_116_420" x1="43.0688" y1="57.7978" x2="40.0688" y2="64.2978" gradientUnits="userSpaceOnUse">
<stop stop-color="#FFF3D9"/>
<stop offset="0.624" stop-color="#9714F4"/>
<stop offset="1" stop-color="#A237EE"/>
</linearGradient>
<linearGradient id="paint1_linear_116_420" x1="31.1372" y1="70.9178" x2="49.1072" y2="70.9178" gradientUnits="userSpaceOnUse">
<stop stop-color="white"/>
<stop offset="0.416" stop-color="#F5F4F8"/>
<stop offset="1" stop-color="#EFECF3"/>
</linearGradient>
<linearGradient id="paint2_linear_116_420" x1="32.7792" y1="30.3782" x2="60.0112" y2="30.3782" gradientUnits="userSpaceOnUse">
<stop stop-color="#8B0CC7"/>
<stop offset="0.624" stop-color="#B05DCD"/>
<stop offset="1" stop-color="#9113F5"/>
</linearGradient>
<linearGradient id="paint3_linear_116_420" x1="4.0144" y1="41.6131" x2="63.4254" y2="41.6131" gradientUnits="userSpaceOnUse">
<stop stop-color="white"/>
<stop offset="0.416" stop-color="#F5F4F8"/>
<stop offset="1" stop-color="#EFECF3"/>
</linearGradient>
<linearGradient id="paint4_linear_116_420" x1="4.13938" y1="66.0048" x2="13.5644" y2="66.0048" gradientUnits="userSpaceOnUse">
<stop stop-color="#9714F4"/>
<stop offset="1" stop-color="#A237EE"/>
</linearGradient>
<linearGradient id="paint5_linear_116_420" x1="2.7964" y1="55.6512" x2="31.6464" y2="55.6512" gradientUnits="userSpaceOnUse">
<stop stop-color="#9714F4"/>
<stop offset="1" stop-color="#A237EE"/>
</linearGradient>
<linearGradient id="paint6_linear_116_420" x1="21.6684" y1="30.1178" x2="61.5784" y2="30.1178" gradientUnits="userSpaceOnUse">
<stop stop-color="#9714F4"/>
<stop offset="1" stop-color="#A237EE"/>
</linearGradient>
<linearGradient id="paint7_linear_116_420" x1="54.3502" y1="11.76" x2="56.9612" y2="11.76" gradientUnits="userSpaceOnUse">
<stop stop-color="#FFF3D9"/>
<stop offset="0.624" stop-color="#DF60FF"/>
<stop offset="1" stop-color="#BC31FD"/>
</linearGradient>
<linearGradient id="paint8_linear_116_420" x1="61.2658" y1="20.2509" x2="67.2728" y2="20.2509" gradientUnits="userSpaceOnUse">
<stop stop-color="#FFF3D9"/>
<stop offset="0.624" stop-color="#9714F4"/>
<stop offset="1" stop-color="#A237EE"/>
</linearGradient>
<linearGradient id="paint9_linear_116_420" x1="59.2396" y1="14.2492" x2="64.2526" y2="14.2492" gradientUnits="userSpaceOnUse">
<stop stop-color="#FFF3D9"/>
<stop offset="0.624" stop-color="#9714F4"/>
<stop offset="1" stop-color="#A237EE"/>
</linearGradient>
</defs>
</svg>

<svg xmlns="http://www.w3.org/2000/svg" viewBox="0 0 72 88"  xmlns:v="https://vecta.io/nano"><linearGradient id="A" gradientUnits="userSpaceOnUse" x1="43.068" y1="57.798" x2="40.068" y2="64.298"><stop offset="0" stop-color="#fff3d9"/><stop offset=".624" stop-color="#ffcc60"/><stop offset="1" stop-color="#fdbc31"/></linearGradient><path d="M40 59.3l-4.2 4.2c2.4 2.7 6.5 2.8 9.1.3.8-.9.3-2.3-.9-2.5-1.5-.2-3-.9-4-2z" fill="url(#A)"/><linearGradient id="B" gradientUnits="userSpaceOnUse" x1="31.138" y1="70.918" x2="49.108" y2="70.918"><stop offset="0" stop-color="#fff"/><stop offset=".416" stop-color="#f5f4f8"/><stop offset="1" stop-color="#efecf3"/></linearGradient><path d="M37.4 61.8L48 72.4a4.41 4.41 0 0 1 0 6.2 4.41 4.41 0 0 1-6.2 0L31.2 68.1l6.2-6.3z" fill="url(#B)"/><path d="M31.2 68.1l.6.6c1.6 1.6 4.2 1.6 5.9 0l.9-.9 7 7c1.3 1.3 1.6 3.2 1 4.8.5-.2 1-.5 1.4-1a4.41 4.41 0 0 0 0-6.2L37.4 61.8l-6.2 6.3z" opacity=".07" enable-background="new"/><linearGradient id="C" gradientUnits="userSpaceOnUse" x1="32.78" y1="30.378" x2="60.012" y2="30.378"><stop offset="0" stop-color="#fff3d9"/><stop offset=".624" stop-color="#ffcc60"/><stop offset="1" stop-color="#fdbc31"/></linearGradient><path d="M45.4 45.1c8.1 0 14.7-6.6 14.7-14.7s-6.6-14.7-14.7-14.7-14.7 6.6-14.7 14.7 6.6 14.7 14.7 14.7z" fill="url(#C)"/><path d="M34.5 20.6l20.8 20.8.6-.6c2.1-2.1 3.4-4.7 4-7.4L42.4 16c-2.7.6-5.3 1.9-7.4 4-.2.2-.3.4-.5.6z" opacity=".05" enable-background="new"/><linearGradient id="D" gradientUnits="userSpaceOnUse" x1="4.014" y1="41.613" x2="63.425" y2="41.613"><stop offset="0" stop-color="#fff"/><stop offset=".416" stop-color="#f5f4f8"/><stop offset="1" stop-color="#efecf3"/></linearGradient><path d="M20.2 29.6h0L9.6 40.2a18.35 18.35 0 0 0 0 26 18.35 18.35 0 0 0 26 0l10.6-10.6a18.31 18.31 0 0 1 15.4-5l2.6-2.6-36.4-36.4-2.6 2.6a18.31 18.31 0 0 1-5 15.4z" fill="url(#D)"/><path d="M27.8 11.6L64.2 48l-2.6 2.6c-3.2-.5-6.5-.1-9.5 1.1L24 23.7c1.2-3 1.6-6.3 1.1-9.5l2.7-2.6z" opacity=".07" enable-background="new"/><linearGradient id="E" gradientUnits="userSpaceOnUse" x1="4.139" y1="66.005" x2="13.564" y2="66.005"><stop offset="0" stop-color="#ff9aa1"/><stop offset="1" stop-color="#f23c49"/></linearGradient><path d="M15 67l-2.9 2.9a4.41 4.41 0 0 1-6.2 0 4.41 4.41 0 0 1 0-6.2l2.9-2.9L15 67z" fill="url(#E)"/><linearGradient id="F" gradientUnits="userSpaceOnUse" x1="2.796" y1="55.651" x2="31.646" y2="55.651"><stop offset="0" stop-color="#ff9aa1"/><stop offset="1" stop-color="#f23c49"/></linearGradient><path d="M36.2 65.7l-26-26-.6.6a18.35 18.35 0 0 0 0 26 18.35 18.35 0 0 0 26 0l.6-.6z" fill="url(#F)"/><linearGradient id="G" gradientUnits="userSpaceOnUse" x1="21.668" y1="30.118" x2="61.578" y2="30.118"><stop offset="0" stop-color="#ff9aa1"/><stop offset="1" stop-color="#f23c49"/></linearGradient><path d="M60.3 50.9L24.9 15.5a4.41 4.41 0 0 1 0-6.2 4.41 4.41 0 0 1 6.2 0l35.4 35.4a4.41 4.41 0 0 1 0 6.2c-1.7 1.8-4.5 1.8-6.2 0z" fill="url(#G)"/><linearGradient id="H" gradientUnits="userSpaceOnUse" x1="54.351" y1="11.76" x2="56.962" y2="11.76"><stop offset="0" stop-color="#fff3d9"/><stop offset=".624" stop-color="#ffcc60"/><stop offset="1" stop-color="#fdbc31"/></linearGradient><path d="M55.6 15c-.8 0-1.4-.6-1.4-1.4V9.9c0-.8.6-1.4 1.4-1.4s1.4.6 1.4 1.4v3.7c0 .8-.7 1.4-1.4 1.4z" fill="url(#H)"/><linearGradient id="I" gradientUnits="userSpaceOnUse" x1="61.265" y1="20.251" x2="67.272" y2="20.251"><stop offset="0" stop-color="#fff3d9"/><stop offset=".624" stop-color="#ffcc60"/><stop offset="1" stop-color="#fdbc31"/></linearGradient><path d="M65.9 21.7h-3.7c-.8 0-1.4-.6-1.4-1.4s.6-1.4 1.4-1.4h3.7c.8 0 1.4.6 1.4 1.4 0 .7-.6 1.4-1.4 1.4z" fill="url(#I)"/><linearGradient id="J" gradientUnits="userSpaceOnUse" x1="59.24" y1="14.249" x2="64.253" y2="14.249"><stop offset="0" stop-color="#fff3d9"/><stop offset=".624" stop-color="#ffcc60"/><stop offset="1" stop-color="#fdbc31"/></linearGradient><path d="M59.3 16.5c-.6-.6-.6-1.4 0-2l2.6-2.6c.6-.6 1.4-.6 2 0s.6 1.4 0 2l-2.6 2.6c-.6.6-1.5.6-2 0z" fill="url(#J)"/></svg>
